{ "compressionlevel":-1,
 "height":19,
 "infinite":false,
 "layers":[
        {
         "data":[823, 823, 823, 823, 823, 823, 823, 823, 823, 823, 823, 823,
            823, 823, 823, 823, 823, 823, 823, 823, 823, 823, 823, 823,
            823, 823, 823, 823, 823, 823, 823, 823, 823, 823, 823, 823,
            823, 823, 823, 823, 823, 823, 823, 823, 823, 823, 823, 823,
            890, 891, 892, 893, 894, 895, 895, 896, 897, 898, 899, 900,
            965, 966, 967, 968, 969, 970, 970, 971, 972, 973, 974, 975,
            1040, 1041, 1042, 1043, 1044, 1045, 1045, 1046, 1047, 1048, 1049, 1050,
            1115, 1116, 1117, 1118, 1119, 1119, 1120, 1121, 1122, 1123, 1124, 1125,
            1190, 1191, 1192, 1193, 1194, 1194, 1195, 1196, 1197, 1198, 1199, 1200,
            1265, 1266, 1267, 1268, 1269, 1269, 1270, 1271, 1272, 1273, 1274, 1275,
            1340, 1341, 1342, 1343, 1344, 1344, 1345, 1346, 1347, 1348, 1349, 1350,
            1415, 1416, 1417, 1418, 1419, 1419, 1420, 1421, 1422, 1423, 1424, 1425,
            1490, 1491, 1492, 1493, 1494, 1494, 1495, 1496, 1497, 1498, 1499, 1500,
            1565, 1566, 1567, 1568, 1569, 1569, 1570, 1571, 1572, 1573, 1574, 1575,
            1640, 1641, 1642, 1643, 1644, 1644, 1645, 1646, 1647, 1648, 1649, 1650,
            1715, 1716, 1717, 1718, 1718, 1719, 1720, 1721, 1722, 1723, 1724, 1725,
            823, 823, 823, 823, 823, 823, 823, 823, 823, 823, 823, 823,
            823, 823, 823, 823, 823, 823, 823, 823, 823, 823, 823, 823,
            823, 823, 823, 823, 823, 823, 823, 823, 823, 823, 823, 823],
         "height":19,
         "id":1,
         "name":"serre_main_scene",
         "opacity":1,
         "type":"tilelayer",
         "visible":true,
         "width":12,
         "x":0,
         "y":0
        }, 
        {
         "draworder":"topdown",
         "id":2,
         "name":"serre_zone_1",
         "objects":[
                {
                 "height":111.162790697674,
                 "id":1,
                 "name":"",
                 "opacity":1,
                 "rotation":0,
                 "type":"",
                 "visible":true,
                 "width":79.0697674418604,
                 "x":16.2790697674419,
                 "y":127.906976744186
                }],
         "opacity":1,
         "type":"objectgroup",
         "visible":true,
         "x":0,
         "y":0
        }, 
        {
         "draworder":"topdown",
         "id":3,
         "name":"serre_zone_2",
         "objects":[
                {
                 "height":110.697674418605,
                 "id":2,
                 "name":"",
                 "opacity":1,
                 "rotation":0,
                 "type":"",
                 "visible":true,
                 "width":62.7906976744186,
                 "x":112.558139534884,
                 "y":128.372093023256
                }],
         "opacity":1,
         "type":"objectgroup",
         "visible":true,
         "x":0,
         "y":0
        }],
 "nextlayerid":4,
 "nextobjectid":3,
 "orientation":"orthogonal",
 "renderorder":"right-down",
 "tiledversion":"1.12.2",
 "tileheight":16,
 "tilesets":[
        {
         "firstgid":1,
         "source":"farm_spring_summer.tsx"
        }],
 "tilewidth":16,
 "type":"map",
 "version":"1.10",
 "width":12
}